X:1
T:Title
%%score { 1 | ( 2 3 ) }
L:1/8
M:3/4
K:G
V:1 treble nm="Grand Piano"
V:2 bass 
V:3 bass 
V:1
 z2 z2[Q:1/4=100] D2 | GB d3 ^c | ed B2 GB | [FA][=F^G] [^FA]2 [F_B]2 |[M:2/4] B4 |[M:1/4] D2 | %6
[M:3/4] GB d3 ^c | ed B2 G2 | A^G A2 B2 |[M:2/4] G4 |[M:1/4] B2 |[M:3/4] cB c2 A2 | B_B =B2 G2 | %13
 A^G A2 _B2 |[M:5/8] B2 A3 |[M:1/4] D2 |[M:3/4] A^G A2 D2 | B_B =B2 D2 | A^G A2 B2 |[M:5/8] A2 G3 | %20
[M:1/4] D2 |[M:3/4] GB d3 ^c | ed B2 GB | [FA][=F^G] [^FA]2 [F_B]2 |[M:2/4] B4 |[M:1/4] D2 | %26
[M:3/4] GB d3 ^c | ed B2 G2 | A^G A2 B2 |[M:2/4] [B,DG]4 |] %30
V:2
 z2 z2 [G,B,]2 | [F,B,D][K:treble][G,B,D] [G,B,G]3 [G,_B,G] | [G,G]2 z2 z2 | %3
 [D,D][D,D] [D,D]2 [D,D]2 |[M:2/4][K:treble] [G,DG]4 |[M:1/4] [G,B,]2 | %6
[M:3/4] [G,B,D][G,B,D] [G,B,G]3 [G,_B,G] | [G,CG][G,B,G] [G,DG]2[K:bass] [G,B,D]2 | %8
 [D,CD][D,B,D] [D,CD]2 [D,D]2 |[M:2/4] [G,B,D]4 |[M:1/4] [G,D]2 | %11
[M:3/4] [G,E][G,^D] [G,E]2 [G,C]2 | [G,D][G,^C] [G,D]2 [G,B,]2 | [D,C][D,B,] [D,C]2 [D,^C]2 | %14
[M:5/8] [G,D]2 [D,C]3 |[M:1/4] [D,B,]2 |[M:3/4] [D,C][D,B,] [D,C]2 [D,B,]2 | %17
 [G,D][G,^C] [G,D]2 [G,B,]2 | [D,C][D,B,] [D,C]2 [D,D]2 |[M:5/8] [D,C]2 [G,B,]3 |[M:1/4] [G,B,]2 | %21
[M:3/4][K:treble] [G,B,D][G,B,D] [G,B,G]3 [G,_B,G] | [G,G]2 z2 z2 | [D,D][D,D] [D,D]2 [D,D]2 | %24
[M:2/4][K:treble] [G,DG]4 |[M:1/4] [G,B,]2 |[M:3/4] [G,B,D][G,B,D] [G,B,G]3 [G,_B,G] | %27
 [G,CG][G,B,G] [G,DG]2[K:bass] [G,B,D]2 | [D,CD][D,B,D] [D,CD]2 [D,D]2 |[M:2/4] [G,,G,]4 |] %30
V:3
 x6 | x[K:treble] x5 | CB, [G,DG]2 [G,B,D][G,DG] | x6 |[M:2/4][K:treble] x4 |[M:1/4] x2 | %6
[M:3/4] x6 | x4[K:bass] x2 | x6 |[M:2/4] x4 |[M:1/4] x2 |[M:3/4] x6 | x6 | x6 |[M:5/8] x5 | %15
[M:1/4] x2 |[M:3/4] x6 | x6 | x6 |[M:5/8] x5 |[M:1/4] x2 |[M:3/4][K:treble] x6 | %22
 CB, [G,DG]2 [G,B,D][G,DG] | x6 |[M:2/4][K:treble] x4 |[M:1/4] x2 |[M:3/4] x6 | x4[K:bass] x2 | %28
 x6 |[M:2/4] x4 |] %30

